X:1
T:Title
%%score ( 1 2 ) 3
L:1/8
Q:1/4=75
M:6/8
K:C
V:1 treble nm="Strings 1, Treble"
V:2 treble 
V:3 bass nm="Strings 1, Bass"
V:1
 z3 z2 [EG] | [CE]2 [DF] [EG]2 [EG] | [FA][FA][FA] [FA][FA][FA] | [EG]2 [EG] [CE]2 [DF] | %4
w: 1.~Where~|shall~ we~ look~ for~|help~ in~ af flic tion?~ Or~|whith er~ shall~ we~|
 [EG]3- [EG]2 [EG] | [Ge]2 [Fd] [Ec]2 [Ec] | [Fd][Fc][FA] [EG][CE][EG] | [DB]2 [DA] [DB]2 [DA] | %8
w: send?~ * "The~|prayer~ of~ faith~ will~|save,"~ it~ is~ writ ten,~ 'Tis~|truth~ till~ time~ shall~|
 [DG]3- [DG]2 [EG] | [Ec]2 [Ec] [Ge][Fd][Ec] | [EG]3 [CE]2 [EG] | [Ec]2 [Gc] BAG | [Gd]3- [Gd]2 C | %13
w: end.~ * *|||||
 [CE]2 [DF] [EG]2 [EG] | [Ec]2 [Fd] [Ge][Fd][Ec] | [FA]2 [FA] [FB]2 [FB] | [Ec]6 |] %17
w: ||||
V:2
 x6 | x6 | x6 | x6 | x6 | x6 | x6 | x6 | x6 | x6 | x6 | z3 .^F3 | x6 | x6 | x6 | x6 | x6 |] %17
V:3
 z3 z2 [C,G,] | [C,G,]2 [C,G,] [C,C]2 [C,C] | [F,C][F,C][F,C] [F,C][F,C][F,C] | %3
 [C,C]2 [C,C] [C,G,]2 [C,G,] | [C,C]3- [C,C]2 [C,C] | [C,C]2 [C,G,] [C,G,]2 [C,G,] | %6
 [F,A,][F,A,][F,C] [C,C][C,G,][C,G,] | [D,G,]2 [D,^F,] [D,G,]2 [D,C] | [G,,B,]3- [G,,B,]2 [C,C] | %9
 [C,G,]2 [C,G,] [C,C][C,C][C,C] | [C,C]3 [C,G,]2 [C,G,] | [C,G,]2 [E,C] [D,D]2 [G,B,] | %12
 [G,B,]3- [G,B,]2 [C,E,] | [C,G,]2 [C,G,] [C,C]2 [C,C] | [C,C]2 [C,C] [C,C][C,C][C,C] | %15
 [F,C]2 [F,C] G,2 [G,,G,] | [C,G,]6 |] %17

